X:1
T:My Mother Is Praying for Me
T:My Mother Is Praying for Me
T:Mrs. Friolin Sluessy, arr Robt E. McNeill, 1901
T:Frances Jane (Fanny) Crosby, 1886
T:Public Domain Courtesy of the Cyber Hymnal™
T:Public Domain Courtesy of the Cyber Hymnal™
C:Mrs. Friolin Sluessy, arr Robt E. McNeill, 1901
Z:Public Domain
Z:Courtesy of the Cyber Hymnal™
%%score ( 1 2 ) ( 3 4 )
L:1/8
Q:1/4=92
M:6/8
K:Db
V:1 treble 
V:2 treble 
V:3 bass 
V:4 bass 
V:1
 [FA] | [FA][DF][EG] [FA][GB][Gc] | [Fd]3 [FA]2 [FA] | [EG][=DF][EG] [GB][FA][EG] | %4
w: 1.~A|prayer on the wings of an|an- gel, Is|borne to the por- tals of|
w: 2.~I|know I am weak and un-|wor- thy, No|mer- it of mine would I|
w: 3.~For|long I have wan- dered un-|heed- ing, The|warn- ings so ten- der and|
 [DF]3- [DF]2 [FA] | [FA][DF][FA] [Gd][Gc][GB] | [FA]3 [DF]2 [DF] | [CE][CA][Ec] [DB][DF][D=G] | %8
w: light; * I|feel in my heart the as-|sur- ance That|mo- ther is pray- ing to-|
w: bring; * The|cross of my Lord is be-|fore me, And|there, tho’ I per- ish, I’ll|
w: true, * The|tears she has wept o’er my|child- hood, That|fell on my cheeks like the|
 [CA]3- [CA]2 [FA] | [EG][DF][EG] [CE][DF][EG] | [GB]3 [FA]2 [FA] | [GB][G=A][GB] [=GB][Gc][Gd] | %12
w: night. * My|spir- it is wound- ed and|brok- en, My|sins with con- tri- tion I|
w: cling. * Oh,|yes I will go to my|Sav- ior, His|child from this mo- ment I’ll|
w: dew. * And|now while she kneels in her|clo- set, When|no one but Je- sus can|
 [Ac]3- [Ac]2 [GA] | [Fd][Gc][Fd] [Ge][Gd][GB] | [FA]3 !fermata![Fd]2 [GB] | %15
w: see, * To|Je- sus I’ll go and con-|fess them, While|
w: be, * My|faith shall look up and re-|ceive Him, While|
w: see, * I’ll|ask for His lov- ing for-|give- ness, While|
 [FA]<[DF]D [CE]<!fermata![CF][CE] | D3- D2 ||"^Refrain" [FA] | [GA][Gc][GB] [CA][CE][C=E] | %19
w: mo- ther is pray- ing for|me. *|||
w: mo- ther is pray- ing for|me. *|My|mo- ther is pray- ing for|
w: mo- ther is pray- ing for|me. *|||
 [DF]3- [DF]2 [FA] | [GB]>[Gc][Gd] [=Gd][Gc][GB] | A3- A2 [CG] | [DF][CE][DF] [EG][DF][EG] | %23
w: ||||
w: me, * My|mo- ther is pray- ing for|me, * To|Je- sus I’ll go, who will|
w: ||||
 [FA][Fd][Fd] !fermata![GB]2 [GB] | [FA]<[DF]D [CE]<[CF]"^riten."[CE] | D3 [A,D]2 |] %26
w: |||
w: par- don, I know, While|mo- ther is pray- ing for|me. *|
w: |||
V:2
 x | x6 | x6 | x6 | x6 | x6 | x6 | x6 | x6 | x6 | x6 | x6 | x6 | x6 | x6 | x2 D x3 | D3- D2 || x | %18
 x6 | x6 | x6 | A3- A2 x | x6 | x6 | x2 D x3 | D2- B, x2 |] %26
V:3
 [D,D] | [D,D][D,A,][D,A,] [D,D]A,A, | [D,A,]3 [D,D]2 A, | %3
 [A,,A,][A,,A,][A,,A,] [A,,A,][A,,A,][A,,A,] | [D,A,]3- [D,A,]2 [D,D] | %5
 [D,D][D,A,][D,D] [G,B,][G,B,][G,D] | [D,D]3 [D,A,]2 [D,A,] | [E,A,]E,E, [E,=G,][E,A,][E,B,] | %8
 [A,,E,A,]3- [A,,E,A,]2 A, | A,A,A, [A,,A,][A,,A,]A, | [D,D]3 [D,D]2 [D,D] | %11
 [G,D][G,C][G,D] [E,C][E,C][E,C] | [A,E]3- [A,E]2 A, | [D,A,][D,A,][D,A,] [G,B,][G,B,][G,D] | %14
 [D,D]3 !fermata![D,D]2 [G,D] | [A,D]<A,[A,,F,] [A,,G,]<!fermata![A,,A,][A,,G,] | %16
 [D,F,]3- [D,F,]2 || [D,D] | [A,C]A,A, [A,,A,][A,,A,][A,,A,] | [D,A,]3- [D,A,]2 [D,D] | %20
 [G,D]>[G,C][G,B,] [E,E][E,E][E,D] | [A,C]3- [A,C]2 A, | [D,A,][D,A,][D,A,] [A,,A,][A,,A,]A, | %23
 [D,D][D,A,][D,D] !fermata![G,D]2 [G,D] | [A,D]<A,[A,,F,] [A,,G,]<[A,,A,][A,,G,] | %25
 (F,2 G, [D,F,]2) |] %26
V:4
 x | x4 A,A, | x5 A, | x6 | x6 | x6 | x6 | x E,E, x3 | x5 A, | A,A,A, x A, x | x6 | x6 | x5 A, | %13
 x6 | x6 | x/ A,3/2 x4 | x5 || x | x A,A, x3 | x6 | x6 | x5 A, | x5 A, | x6 | x/ A,3/2 x4 | %25
 D,3- x2 |] %26

